X:96
T:Hornpipe
S:John Moore's Book 2
Z:Transcribed by Steve Mansfield 05/2021
%%VWML: Moore2-4494-p74-0
F:http://www.vwml.org/record/Moore2/4494/p74
M:C
L:1/8
K:D
AB/c/ | dAFA dAFA | Bcde dcBA | f2ef gfed | cdef ecAc | 
dAFA dAFA | Bcde dcBA | Acef gece | d2d2d2 :|
|: fg | afdf afdf | bagf edcd | edcf gfed | cdef ecAc | 
dAFA dAFA | Bcde dcBA | Acef gece | d2d2d2 :|

